dist/static/img/general/caret.svg

<svg height="6" viewBox="0 0 10 6" width="10" xmlns="http://www.w3.org/2000/svg"><path d="m.646447.646447c.195262-.195263.511843-.195263.707103 0l3.64645 3.646443 3.64645-3.646443c.19526-.195263.51184-.195263.7071 0 .19527.195262.19527.511843 0 .707103l-4 4c-.19526.19527-.51184.19527-.7071 0l-4.000003-4c-.195263-.19526-.195263-.511841 0-.707103z" fill="#333e50" fill-rule="evenodd"/></svg>

<svg xmlns="http://www.w3.org/2000/svg" width="10" height="6" viewBox="0 0 10 6">
  <path fill="#333E50" fill-rule="evenodd" d="M0.646447,0.646447 C0.841709,0.451184 1.15829,0.451184 1.35355,0.646447 L5,4.29289 L8.64645,0.646447 C8.84171,0.451184 9.15829,0.451184 9.35355,0.646447 C9.54882,0.841709 9.54882,1.15829 9.35355,1.35355 L5.35355,5.35355 C5.15829,5.54882 4.84171,5.54882 4.64645,5.35355 L0.646447,1.35355 C0.451184,1.15829 0.451184,0.841709 0.646447,0.646447 Z"/>
</svg>
